apps/scalable/PCSX2.svg

<svg xmlns="http://www.w3.org/2000/svg" style="isolation:isolate" width="256" height="256"><defs><filter id="a" width="270.648" height="254.338" x="-7.32" y="2.95" filterUnits="userSpaceOnUse"><feGaussianBlur xmlns="http://www.w3.org/2000/svg" in="SourceGraphic" stdDeviation="4.294"/><feOffset xmlns="http://www.w3.org/2000/svg" dy="4" result="pf_100_offsetBlur"/><feFlood xmlns="http://www.w3.org/2000/svg" flood-opacity=".4"/><feComposite xmlns="http://www.w3.org/2000/svg" in2="pf_100_offsetBlur" operator="in" result="pf_100_dropShadow"/><feBlend xmlns="http://www.w3.org/2000/svg" in="SourceGraphic" in2="pf_100_dropShadow"/></filter></defs><g filter="url(#a)"><linearGradient id="b" x1=".25" x2=".75" y1=".036" y2=".902" gradientTransform="matrix(244.648 0 0 228.338 5.676 11.947)" gradientUnits="userSpaceOnUse"><stop offset="0%" stop-color="#2f5fdd"/><stop offset="100%" stop-color="#5884f4"/></linearGradient><path fill="url(#b)" d="M165.685 11.947c74.055 0 84.639 10.557 84.639 84.544v59.251c0 73.986-10.584 84.543-84.639 84.543h-75.37c-74.055 0-84.639-10.557-84.639-84.543V96.491c0-73.987 10.584-84.544 84.639-84.544h75.37z"/></g><g opacity=".3"><path fill="#191876" d="M28.854 127.815a4.124 4.124 0 0 0-1.074 3.985 4.127 4.127 0 0 0 6.902 1.858l32.602-32.519L85.5 119.401 52.898 151.92a4.13 4.13 0 0 0-.008 5.836L78.2 183.13a4.127 4.127 0 1 0 5.843-5.828l-22.396-22.453L94.25 122.33a4.128 4.128 0 0 0 .007-5.836L70.213 92.389a4.13 4.13 0 0 0-5.836-.008l-35.523 35.434zM82.773 74.032a4.124 4.124 0 0 0-.007 5.836l24.044 24.105a4.13 4.13 0 0 0 5.836.008l34.505-34.418 19.481 19.531-17.377 17.334a4.126 4.126 0 1 0 5.828 5.843l20.299-20.248a4.124 4.124 0 0 0 .007-5.836L150.08 60.813a4.124 4.124 0 0 0-5.836-.007l-34.505 34.417-18.216-18.262 34.505-34.418A4.127 4.127 0 1 0 120.2 36.7L82.773 74.032zM93.438 157.04a4.128 4.128 0 0 0 1.838 6.912 4.127 4.127 0 0 0 3.99-1.069l35.14-35.05 18.216 18.262-35.139 35.051a4.122 4.122 0 0 0-.008 5.835l24.044 24.105a4.13 4.13 0 0 0 5.836.008l38.061-37.964a4.128 4.128 0 0 0-1.838-6.912 4.124 4.124 0 0 0-3.99 1.069l-35.14 35.05-18.216-18.262 35.14-35.051a4.128 4.128 0 0 0 .007-5.835l-24.044-24.105a4.125 4.125 0 0 0-5.836-.008L93.438 157.04zM92.037 186.218a9.776 9.776 0 0 0-.02 13.856l28.335 28.407a9.781 9.781 0 0 0 13.859.019l5.749-5.734v-4.125l-42.174-38.156-5.749 5.733zm66.151-65.983l42.174 42.28 21.468-21.414a9.778 9.778 0 0 0 .018-13.859l-28.335-28.407a9.776 9.776 0 0 0-13.856-.015l-21.469 17.289v4.126z"/><path fill="#FFF" d="M28.854 123.69a4.123 4.123 0 0 0-1.074 3.984 4.127 4.127 0 0 0 6.902 1.859l32.602-32.52L85.5 115.275l-32.602 32.52a4.124 4.124 0 0 0-.008 5.835l25.31 25.374a4.124 4.124 0 0 0 6.908-1.84 4.128 4.128 0 0 0-1.065-3.988l-22.396-22.452 32.603-32.52a4.128 4.128 0 0 0 .007-5.835L70.213 88.263a4.124 4.124 0 0 0-5.836-.007L28.854 123.69z" opacity=".8"/><path fill="#F8F8F8" d="M82.773 69.907a4.124 4.124 0 0 0-.007 5.835l24.044 24.105a4.125 4.125 0 0 0 5.836.008l34.505-34.418 19.481 19.531-17.377 17.334a4.127 4.127 0 1 0 5.828 5.843l20.299-20.248a4.122 4.122 0 0 0 .007-5.835L150.08 56.688a4.13 4.13 0 0 0-5.836-.008l-34.505 34.418-18.216-18.263 34.505-34.417a4.124 4.124 0 0 0 1.074-3.985 4.127 4.127 0 0 0-6.902-1.858L82.773 69.907z" opacity=".8"/><path fill="#FFF" d="M93.438 152.915a4.126 4.126 0 1 0 5.828 5.843l35.14-35.051 18.216 18.262-35.139 35.051a4.125 4.125 0 0 0-.008 5.835l24.044 24.106a4.124 4.124 0 0 0 5.836.008l38.061-37.965a4.126 4.126 0 1 0-5.828-5.843l-35.14 35.05-18.216-18.262 35.14-35.05a4.128 4.128 0 0 0 .007-5.836l-24.044-24.105a4.13 4.13 0 0 0-5.836-.008l-38.061 37.965zM92.037 182.092a9.776 9.776 0 0 0-.02 13.856l28.335 28.407a9.78 9.78 0 0 0 13.859.02l5.749-5.734-42.174-42.281-5.749 5.732zm66.151-65.983l42.174 42.281 21.468-21.415a9.777 9.777 0 0 0 .018-13.858L193.513 94.71a9.776 9.776 0 0 0-13.856-.016l-21.469 21.415z" opacity=".8"/></g><g fill="#BFCFF9"><path d="M188.471 105.071v45.888h45.888v-45.888h-45.888zm3.533 3.828h38.822v38.238h-38.822v-38.238zM138.042 104.498l-2.543 2.373 40.513 45.273 2.543-2.373-40.513-45.273z"/><path d="M176.144 104.608l-40.763 45.038 2.529 2.388 40.763-45.038-2.529-2.388zM104.149 101.244c-13.353 0-23.968 12.128-23.968 26.756s10.615 26.756 23.968 26.756 23.967-12.128 23.967-26.756-10.614-26.756-23.967-26.756zm0 4.085c10.865 0 19.887 10.002 19.887 22.671 0 12.669-9.022 22.671-19.887 22.671-10.866 0-19.882-10.002-19.882-22.671 0-12.669 9.016-22.671 19.882-22.671zM47.326 103.635l-1.774 3.496-23.911 47.092h51.374l-25.689-50.588zm0 8.793l19.202 37.811h-38.4l19.198-37.811z"/></g><g opacity=".4"><linearGradient id="c" x1=".517" x2=".517" y2="1"><stop offset="0%" stop-color="#fff"/><stop offset="12.5%" stop-opacity=".098" stop-color="#fff"/><stop offset="92.5%" stop-opacity=".098"/><stop offset="100%" stop-opacity=".498"/></linearGradient><path fill="none" stroke="url(#c)" stroke-linecap="round" stroke-linejoin="round" stroke-width="4.077" d="M165.685 11.947c74.055 0 84.639 10.557 84.639 84.544v59.251c0 73.986-10.584 84.543-84.639 84.543h-75.37c-74.055 0-84.639-10.557-84.639-84.543V96.491c0-73.987 10.584-84.544 84.639-84.544h75.37z" vector-effect="non-scaling-stroke"/></g></svg>

<svg xmlns="http://www.w3.org/2000/svg" style="isolation:isolate" width="256" height="256" viewBox="0 0 256 256">
 <defs>
  <filter id="bIRWujltYjraId4b8dh9GgiAyQLxkP2I" width="270.648" height="254.338" x="-7.32" y="2.95" filterUnits="userSpaceOnUse">
   <feGaussianBlur xmlns="http://www.w3.org/2000/svg" in="SourceGraphic" stdDeviation="4.294"/>
   <feOffset xmlns="http://www.w3.org/2000/svg" dx="0" dy="4" result="pf_100_offsetBlur"/>
   <feFlood xmlns="http://www.w3.org/2000/svg" flood-opacity=".4"/>
   <feComposite xmlns="http://www.w3.org/2000/svg" in2="pf_100_offsetBlur" operator="in" result="pf_100_dropShadow"/>
   <feBlend xmlns="http://www.w3.org/2000/svg" in="SourceGraphic" in2="pf_100_dropShadow" mode="normal"/>
  </filter>
 </defs>
 <g filter="url(#bIRWujltYjraId4b8dh9GgiAyQLxkP2I)">
  <linearGradient id="_lgradient_175" x1=".25" x2=".75" y1=".036" y2=".902" gradientTransform="matrix(244.648,0,0,228.338,5.676,11.947)" gradientUnits="userSpaceOnUse">
   <stop offset="0%" style="stop-color:rgb(47,95,221)"/>
   <stop offset="100%" style="stop-color:rgb(88,132,244)"/>
  </linearGradient>
  <path fill="url(#_lgradient_175)" d="M 165.685 11.947 C 239.74 11.947 250.324 22.504 250.324 96.491 L 250.324 155.742 C 250.324 229.728 239.74 240.285 165.685 240.285 L 90.315 240.285 C 16.26 240.285 5.676 229.728 5.676 155.742 L 5.676 96.491 C 5.676 22.504 16.26 11.947 90.315 11.947 L 165.685 11.947 Z"/>
 </g>
 <g>
  <g style="opacity:0.3">
   <path fill="#191876" d="M 28.854 127.815 C 27.809 128.856 27.4 130.375 27.78 131.8 C 28.159 133.225 29.27 134.339 30.694 134.722 C 32.118 135.105 33.638 134.7 34.682 133.658 L 67.284 101.139 L 85.5 119.401 L 52.898 151.92 C 52.123 152.693 51.687 153.742 51.685 154.837 C 51.684 155.931 52.117 156.981 52.89 157.756 L 78.2 183.13 C 79.241 184.175 80.76 184.584 82.185 184.205 C 83.61 183.825 84.725 182.714 85.108 181.29 C 85.491 179.866 85.085 178.345 84.043 177.302 L 61.647 154.849 L 94.25 122.33 C 95.024 121.557 95.461 120.508 95.462 119.414 C 95.463 118.319 95.03 117.269 94.257 116.494 L 70.213 92.389 C 69.44 91.614 68.391 91.178 67.297 91.176 C 66.202 91.175 65.152 91.608 64.377 92.381 L 28.854 127.815 Z"/>
   <path fill="#191876" d="M 82.773 74.032 C 81.998 74.805 81.562 75.854 81.561 76.948 C 81.559 78.043 81.993 79.093 82.766 79.868 L 106.81 103.973 C 107.583 104.748 108.632 105.184 109.726 105.186 C 110.821 105.187 111.871 104.754 112.646 103.981 L 147.151 69.563 L 166.632 89.094 L 149.255 106.428 C 147.641 108.037 147.638 110.65 149.247 112.263 C 150.857 113.877 153.469 113.88 155.083 112.271 L 175.382 92.023 C 176.157 91.25 176.593 90.201 176.594 89.107 C 176.596 88.012 176.162 86.962 175.389 86.187 L 150.08 60.813 C 149.307 60.038 148.258 59.602 147.164 59.601 C 146.069 59.599 145.019 60.033 144.244 60.806 L 109.739 95.223 L 91.523 76.961 L 126.028 42.543 C 127.073 41.502 127.482 39.983 127.102 38.558 C 126.723 37.134 125.612 36.02 124.188 35.636 C 122.764 35.253 121.244 35.659 120.2 36.7 L 82.773 74.032 Z"/>
   <path fill="#191876" d="M 93.438 157.04 C 92.391 158.081 91.98 159.601 92.359 161.028 C 92.738 162.454 93.851 163.569 95.276 163.952 C 96.702 164.335 98.223 163.927 99.266 162.883 L 134.406 127.833 L 152.622 146.095 L 117.483 181.146 C 116.708 181.918 116.271 182.967 116.27 184.062 C 116.269 185.156 116.702 186.206 117.475 186.981 L 141.519 211.086 C 142.292 211.861 143.341 212.297 144.435 212.299 C 145.53 212.3 146.58 211.867 147.355 211.094 L 185.416 173.13 C 186.463 172.089 186.874 170.569 186.495 169.142 C 186.116 167.716 185.003 166.6 183.578 166.218 C 182.152 165.835 180.631 166.242 179.588 167.287 L 144.448 202.337 L 126.232 184.075 L 161.372 149.024 C 162.146 148.251 162.583 147.202 162.584 146.108 C 162.585 145.014 162.152 143.964 161.379 143.189 L 137.335 119.084 C 136.562 118.309 135.513 117.872 134.419 117.871 C 133.324 117.87 132.274 118.303 131.499 119.076 L 93.438 157.04 Z"/>
   <path fill="#191876" d="M 92.037 186.218 C 88.194 190.051 88.183 196.23 92.017 200.074 L 120.352 228.481 C 124.186 232.324 130.368 232.332 134.211 228.5 L 139.96 222.766 L 139.96 218.641 L 97.786 180.485 L 92.037 186.218 Z M 158.188 120.235 L 200.362 162.515 L 221.83 141.101 C 225.674 137.267 225.682 131.086 221.848 127.242 L 193.513 98.835 C 189.679 94.992 183.5 94.986 179.657 98.82 L 158.188 116.109 L 158.188 120.235 Z"/>
   <g opacity=".8">
    <path fill="#FFFFFF" d="M 28.854 123.69 C 27.809 124.731 27.4 126.25 27.78 127.674 C 28.159 129.099 29.27 130.213 30.694 130.596 C 32.118 130.98 33.638 130.574 34.682 129.533 L 67.284 97.013 L 85.5 115.275 L 52.898 147.795 C 52.123 148.568 51.687 149.617 51.685 150.711 C 51.684 151.806 52.117 152.856 52.89 153.63 L 78.2 179.004 C 79.241 180.049 80.76 180.459 82.185 180.079 C 83.61 179.7 84.725 178.588 85.108 177.164 C 85.491 175.74 85.085 174.22 84.043 173.176 L 61.647 150.724 L 94.25 118.204 C 95.024 117.431 95.461 116.382 95.462 115.288 C 95.463 114.194 95.03 113.144 94.257 112.369 L 70.213 88.263 C 69.44 87.488 68.391 87.052 67.297 87.051 C 66.202 87.049 65.152 87.483 64.377 88.256 L 28.854 123.69 Z"/>
   </g>
   <g opacity=".8">
    <path fill="#F8F8F8" d="M 82.773 69.907 C 81.998 70.679 81.562 71.728 81.561 72.823 C 81.559 73.917 81.993 74.967 82.766 75.742 L 106.81 99.847 C 107.583 100.622 108.632 101.059 109.726 101.06 C 110.821 101.061 111.871 100.628 112.646 99.855 L 147.151 65.437 L 166.632 84.968 L 149.255 102.302 C 147.641 103.912 147.638 106.524 149.247 108.138 C 150.857 109.751 153.469 109.755 155.083 108.145 L 175.382 87.897 C 176.157 87.125 176.593 86.075 176.594 84.981 C 176.596 83.887 176.162 82.837 175.389 82.062 L 150.08 56.688 C 149.307 55.913 148.258 55.477 147.164 55.475 C 146.069 55.474 145.019 55.907 144.244 56.68 L 109.739 91.098 L 91.523 72.835 L 126.028 38.418 C 127.073 37.377 127.482 35.858 127.102 34.433 C 126.723 33.008 125.612 31.894 124.188 31.511 C 122.764 31.128 121.244 31.533 120.2 32.575 L 82.773 69.907 Z"/>
   </g>
   <g opacity=".8">
    <path fill="#FFFFFF" d="M 93.438 152.915 C 92.391 153.955 91.98 155.476 92.359 156.902 C 92.738 158.329 93.851 159.444 95.276 159.827 C 96.702 160.21 98.223 159.802 99.266 158.758 L 134.406 123.707 L 152.622 141.969 L 117.483 177.02 C 116.708 177.793 116.271 178.842 116.27 179.936 C 116.269 181.031 116.702 182.081 117.475 182.855 L 141.519 206.961 C 142.292 207.736 143.341 208.172 144.435 208.173 C 145.53 208.175 146.58 207.741 147.355 206.969 L 185.416 169.004 C 186.463 167.964 186.874 166.443 186.495 165.017 C 186.116 163.59 185.003 162.475 183.578 162.092 C 182.152 161.709 180.631 162.117 179.588 163.161 L 144.448 198.211 L 126.232 179.949 L 161.372 144.899 C 162.146 144.126 162.583 143.077 162.584 141.983 C 162.585 140.888 162.152 139.838 161.379 139.063 L 137.335 114.958 C 136.562 114.183 135.513 113.747 134.419 113.745 C 133.324 113.744 132.274 114.177 131.499 114.95 L 93.438 152.915 Z"/>
   </g>
   <g opacity=".8">
    <path fill="#FFFFFF" d="M 92.037 182.092 C 88.194 185.926 88.183 192.105 92.017 195.948 L 120.352 224.355 C 124.186 228.199 130.368 228.207 134.211 224.375 L 139.96 218.641 L 97.786 176.36 L 92.037 182.092 Z M 158.188 116.109 L 200.362 158.39 L 221.83 136.975 C 225.674 133.142 225.682 126.96 221.848 123.117 L 193.513 94.71 C 189.679 90.866 183.5 90.861 179.657 94.694 L 158.188 116.109 Z"/>
   </g>
  </g>
  <g>
   <path fill="#BFCFF9" d="M 188.471 105.071 L 188.471 106.985 L 188.471 150.959 L 234.359 150.959 L 234.359 105.071 L 188.471 105.071 Z M 192.004 108.899 L 230.826 108.899 L 230.826 147.137 L 192.004 147.137 L 192.004 108.899 Z"/>
   <path fill="#BFCFF9" d="M 138.042 104.498 L 135.499 106.871 L 176.012 152.144 L 178.555 149.771 L 138.042 104.498 Z"/>
   <path fill="#BFCFF9" d="M 176.144 104.608 L 135.381 149.646 L 137.91 152.034 L 178.673 106.996 L 176.144 104.608 Z"/>
   <path fill="#BFCFF9" d="M 104.149 101.244 C 90.796 101.244 80.181 113.372 80.181 128 C 80.181 142.628 90.796 154.756 104.149 154.756 C 117.502 154.756 128.116 142.628 128.116 128 C 128.116 113.372 117.502 101.244 104.149 101.244 Z M 104.149 105.329 C 115.014 105.329 124.036 115.331 124.036 128 C 124.036 140.669 115.014 150.671 104.149 150.671 C 93.283 150.671 84.267 140.669 84.267 128 C 84.267 115.331 93.283 105.329 104.149 105.329 Z"/>
   <path fill="#BFCFF9" d="M 47.326 103.635 L 45.552 107.131 L 21.641 154.223 L 73.015 154.223 L 47.326 103.635 Z M 47.326 112.428 L 66.528 150.239 L 28.128 150.239 L 47.326 112.428 Z"/>
  </g>
 </g>
 <g opacity=".4">
  <linearGradient id="_lgradient_176" x1=".517" x2=".517" y1="0" y2="1">
   <stop offset="0%" style="stop-color:rgb(255,255,255)"/>
   <stop offset="12.5%" stop-opacity=".098" style="stop-color:rgb(255,255,255)"/>
   <stop offset="92.5%" stop-opacity=".098" style="stop-color:rgb(0,0,0)"/>
   <stop offset="100%" stop-opacity=".498" style="stop-color:rgb(0,0,0)"/>
  </linearGradient>
  <path fill="none" stroke="url(#_lgradient_176)" stroke-linecap="round" stroke-linejoin="round" stroke-width="4.077" d="M 165.685 11.947 C 239.74 11.947 250.324 22.504 250.324 96.491 L 250.324 155.742 C 250.324 229.728 239.74 240.285 165.685 240.285 L 90.315 240.285 C 16.26 240.285 5.676 229.728 5.676 155.742 L 5.676 96.491 C 5.676 22.504 16.26 11.947 90.315 11.947 L 165.685 11.947 Z" vector-effect="non-scaling-stroke"/>
 </g>
</svg>
